images/icons/menu.svg

<svg xmlns="http://www.w3.org/2000/svg" width="32" height="32"><path d="M10 5c0 1.657 1.343 3 3 3h16c1.657 0 3-1.343 3-3v-2c0-1.657-1.343-3-3-3h-16c-1.657 0-3 1.343-3 3v2z"/><path d="M0 5c0 1.657 1.343 3 3 3h2c1.657 0 3-1.343 3-3v-2c0-1.657-1.343-3-3-3h-2c-1.657 0-3 1.343-3 3v2z"/><path d="M4 17c0 1.657 1.343 3 3 3h2c1.657 0 3-1.343 3-3v-2c0-1.657-1.343-3-3-3h-2c-1.657 0-3 1.343-3 3v2z"/><path d="M2 29c0 1.657 1.343 3 3 3h2c1.657 0 3-1.343 3-3v-2c0-1.657-1.343-3-3-3h-2c-1.657 0-3 1.343-3 3v2z"/><path d="M14 17c0 1.657 1.343 3 3 3h12c1.657 0 3-1.343 3-3v-2c0-1.657-1.343-3-3-3h-12c-1.657 0-3 1.343-3 3v2z"/><path d="M12 29c0 1.657 1.343 3 3 3h14c1.657 0 3-1.343 3-3v-2c0-1.657-1.343-3-3-3h-14c-1.657 0-3 1.343-3 3v2z"/></svg>

<?xml version="1.0" encoding="utf-8"?>
<!-- Generator: Adobe Illustrator 17.0.0, SVG Export Plug-In . SVG Version: 6.00 Build 0)  -->
<!DOCTYPE svg PUBLIC "-//W3C//DTD SVG 1.1//EN" "http://www.w3.org/Graphics/SVG/1.1/DTD/svg11.dtd">
<svg version="1.1" id="Layer_1" xmlns="http://www.w3.org/2000/svg" xmlns:xlink="http://www.w3.org/1999/xlink" x="0px" y="0px"
	 width="32px" height="32px" viewBox="0 0 32 32" enable-background="new 0 0 32 32" xml:space="preserve">
<g>
	<g>
		<path d="M10,5c0,1.657,1.343,3,3,3h16c1.657,0,3-1.343,3-3V3c0-1.657-1.343-3-3-3H13c-1.657,0-3,1.343-3,3V5z"/>
	</g>
	<g>
		<path d="M0,5c0,1.657,1.343,3,3,3h2c1.657,0,3-1.343,3-3V3c0-1.657-1.343-3-3-3H3C1.343,0,0,1.343,0,3V5z"/>
	</g>
	<g>
		<path d="M4,17c0,1.657,1.343,3,3,3h2c1.657,0,3-1.343,3-3v-2c0-1.657-1.343-3-3-3H7c-1.657,0-3,1.343-3,3V17z"/>
	</g>
	<g>
		<path d="M2,29c0,1.657,1.343,3,3,3h2c1.657,0,3-1.343,3-3v-2c0-1.657-1.343-3-3-3H5c-1.657,0-3,1.343-3,3V29z"/>
	</g>
	<g>
		<path d="M14,17c0,1.657,1.343,3,3,3h12c1.657,0,3-1.343,3-3v-2c0-1.657-1.343-3-3-3H17c-1.657,0-3,1.343-3,3V17z"/>
	</g>
	<g>
		<path d="M12,29c0,1.657,1.343,3,3,3h14c1.657,0,3-1.343,3-3v-2c0-1.657-1.343-3-3-3H15c-1.657,0-3,1.343-3,3V29z"/>
	</g>
</g>
</svg>
